src/lib/assets/tools/vim.svg

<?xml version="1.0" encoding="UTF-8" standalone="no"?>
<svg width="293.57495" height="293.80618" viewBox="0 0 293.57495 293.80619" version="1.1" id="svg90" sodipodi:docname="vimlogo.svg" inkscape:version="1.2.2 (b0a8486541, 2022-12-01)" xmlns:inkscape="http://www.inkscape.org/namespaces/inkscape" xmlns:sodipodi="http://sodipodi.sourceforge.net/DTD/sodipodi-0.dtd" xmlns="http://www.w3.org/2000/svg" xmlns:svg="http://www.w3.org/2000/svg" xmlns:rdf="http://www.w3.org/1999/02/22-rdf-syntax-ns#" xmlns:cc="http://creativecommons.org/ns#">
  <defs id="defs94"/>
  <sodipodi:namedview id="namedview92" pagecolor="#000000" bordercolor="#666666" borderopacity="1.0" inkscape:showpageshadow="2" inkscape:pageopacity="0" inkscape:pagecheckerboard="true" inkscape:deskcolor="#d1d1d1" showgrid="false" inkscape:zoom="1.6813806" inkscape:cx="146.90309" inkscape:cy="146.90309" inkscape:window-width="1366" inkscape:window-height="703" inkscape:window-x="0" inkscape:window-y="0" inkscape:window-maximized="1" inkscape:current-layer="svg90" showguides="true">
    <sodipodi:guide position="293.57494,23.376487" orientation="0.70710678,-0.70710678" id="guide22222" inkscape:locked="false"/>
  </sodipodi:namedview>
  <path fill-rule="evenodd" fill="#000000" fill-opacity="1" d="M 286.99858,145.37446 145.22904,6.4877374 6.3423305,148.18305 145.22904,287.14399 286.99858,145.37446" id="path2"/>
  <path fill="none" stroke-width="0.216" stroke-linecap="butt" stroke-linejoin="miter" stroke="#000000" stroke-opacity="1" stroke-miterlimit="2.6131" d="M 286.99858,145.37446 145.22905,6.4877374 6.3423305,148.18305 145.22905,287.14399 Z M 286.99858,145.37446" id="path4"/>
  <path fill-rule="evenodd" fill="#006b05" fill-opacity="1" d="M 272.81498,145.37446 H 281.31108 L 145.22904,281.45649 V 272.96039 L 272.81498,145.37446" id="path6"/>
  <path fill="none" stroke-width="0.216" stroke-linecap="butt" stroke-linejoin="miter" stroke="#000000" stroke-opacity="1" stroke-miterlimit="2.6131" d="M 272.81498,145.37446 H 281.31108 L 145.22905,281.45649 V 272.96039 Z M 272.81498,145.37446" id="path8"/>
  <path fill-rule="evenodd" fill="#007d17" fill-opacity="1" d="M 12.02983,148.18305 H 20.52592 L 145.22904,272.96039 V 281.45649 L 12.02983,148.18305" id="path10"/>
  <path fill="none" stroke-width="0.216" stroke-linecap="butt" stroke-linejoin="miter" stroke="#000000" stroke-opacity="1" stroke-miterlimit="2.6131" d="M 12.02983,148.18305 H 20.52592 L 145.22905,272.96039 V 281.45649 Z M 12.02983,148.18305" id="path12"/>
  <path fill-rule="evenodd" fill="#66ff99" fill-opacity="1" d="M 145.22904,20.601017 V 12.175237 L 12.02983,148.18305 H 20.52592 L 145.22904,20.601017" id="path14"/>
  <path fill="none" stroke-width="0.216" stroke-linecap="butt" stroke-linejoin="miter" stroke="#000000" stroke-opacity="1" stroke-miterlimit="2.6131" d="M 145.22905,20.601017 V 12.175237 L 12.02983,148.18305 H 20.52592 Z M 145.22905,20.601017" id="path16"/>
  <path fill-rule="evenodd" fill="#45ff02" fill-opacity="1" d="M 145.22904,12.175237 V 20.601017 L 272.81498,145.37446 H 281.31108 L 145.22904,12.175237" id="path18"/>
  <path fill="none" stroke-width="0.216" stroke-linecap="butt" stroke-linejoin="miter" stroke="#000000" stroke-opacity="1" stroke-miterlimit="2.6131" d="M 145.22905,12.175237 V 20.601017 L 272.81498,145.37446 H 281.31108 Z M 145.22905,12.175237" id="path20"/>
  <path fill-rule="evenodd" fill="#009933" fill-opacity="1" d="M 145.22904,272.96039 272.81498,145.37446 145.22904,20.601017 20.52592,148.18305 145.22904,272.96039" id="path22"/>
  <path fill="none" stroke-width="0.216" stroke-linecap="butt" stroke-linejoin="miter" stroke="#000000" stroke-opacity="1" stroke-miterlimit="2.6131" d="M 145.22905,272.96039 272.81498,145.37446 145.22905,20.601017 20.52592,148.18305 Z M 145.22905,272.96039" id="path24"/>
  <path fill-rule="evenodd" fill="#000000" fill-opacity="1" d="M 171.72514,48.968207 180.22123,57.534607 121.61576,117.00727 V 57.534607 H 127.30326 L 135.79936,48.968207 V 26.358827 L 127.30326,17.792417 H 32.83842 L 24.34233,26.358827 V 48.968207 L 32.83842,57.534607 H 39.46341 V 250.28071 L 49.8306,258.7768 H 79.135285 L 282.24467,48.968207 V 26.358827 L 273.74858,17.792417 H 181.15873 L 171.72514,26.358827 V 48.968207" id="path26"/>
  <path fill="none" stroke-width="0.216" stroke-linecap="butt" stroke-linejoin="miter" stroke="#000000" stroke-opacity="1" stroke-miterlimit="2.6131" d="M 171.72514,48.968207 180.22123,57.534607 121.61576,117.00727 V 57.534607 H 127.30326 L 135.79936,48.968207 V 26.358827 L 127.30326,17.792417 H 32.83842 L 24.34233,26.358827 V 48.968207 L 32.83842,57.534607 H 39.46341 V 250.28071 L 49.8306,258.7768 H 79.135295 L 282.24467,48.968207 V 26.358827 L 273.74858,17.792417 H 181.15873 L 171.72514,26.358827 Z M 171.72514,48.968207" id="path28"/>
  <path fill-rule="evenodd" fill="#ffffff" fill-opacity="1" d="M 35.647,51.847107 29.95951,46.159607 V 29.167417 L 35.647,23.479917 124.49467,23.409607 130.11186,29.167417 124.49467,31.905707 121.61576,29.167417 35.647,43.280707 V 51.847107" id="path30"/>
  <path fill="none" stroke-width="0.216" stroke-linecap="butt" stroke-linejoin="miter" stroke="#000000" stroke-opacity="1" stroke-miterlimit="2.6131" d="M 35.647,51.847107 29.95951,46.159607 V 29.167417 L 35.647,23.479917 124.49467,23.409607 130.11186,29.167417 124.49467,31.905707 121.61576,29.167417 35.647,43.280707 Z M 35.647,51.847107" id="path32"/>
  <path fill-rule="evenodd" fill="#ffffff" fill-opacity="1" d="M 52.63919,253.0893 46.01419,247.4018 V 51.776797 L 52.63919,46.159607 V 253.0893" id="path34"/>
  <path fill="none" stroke-width="0.216" stroke-linecap="butt" stroke-linejoin="miter" stroke="#000000" stroke-opacity="1" stroke-miterlimit="2.6131" d="M 52.63919,253.0893 46.01419,247.4018 V 51.776797 L 52.63919,46.159607 Z M 52.63919,253.0893" id="path36"/>
  <path fill-rule="evenodd" fill="#ffffff" fill-opacity="1" d="M 194.40483,51.847107 200.09233,46.159607 V 57.534607 L 105.55717,153.87055 115.99858,131.19086 194.40483,51.847107" id="path38"/>
  <path fill="none" stroke-width="0.216" stroke-linecap="butt" stroke-linejoin="miter" stroke="#000000" stroke-opacity="1" stroke-miterlimit="2.6131" d="M 194.40483,51.847107 200.09233,46.159607 V 57.534607 L 105.55717,153.87055 115.99858,131.19086 Z M 194.40483,51.847107" id="path40"/>
  <path fill-rule="evenodd" fill="#7f7f7f" fill-opacity="1" d="M 54.5806,43.351017 52.63919,46.159607 46.01419,51.847107 H 35.647 V 40.472107 L 54.5806,43.351017" id="path42"/>
  <path fill="none" stroke-width="0.216" stroke-linecap="butt" stroke-linejoin="miter" stroke="#000000" stroke-opacity="1" stroke-miterlimit="2.6131" d="M 54.5806,43.351017 52.63919,46.159607 46.01419,51.847107 H 35.647 V 40.472107 Z M 54.5806,43.351017" id="path44"/>
  <path fill-rule="evenodd" fill="#7f7f7f" fill-opacity="1" d="M 115.99858,51.847107 V 131.19086 L 105.55717,153.80024 V 46.089297 H 121.61576 L 124.49467,43.280707 121.61576,29.167417 H 130.11186 V 46.159607 L 124.49467,51.847107 H 115.99858" id="path46"/>
  <path fill="none" stroke-width="0.216" stroke-linecap="butt" stroke-linejoin="miter" stroke="#000000" stroke-opacity="1" stroke-miterlimit="2.6131" d="M 115.99858,51.847107 V 131.19086 L 105.55717,153.80024 V 46.089297 H 121.61576 L 124.49467,43.280707 121.61576,29.167417 H 130.11186 V 46.159607 L 124.49467,51.847107 Z M 115.99858,51.847107" id="path48"/>
  <path fill-rule="evenodd" fill="#ffffff" fill-opacity="1" d="M 183.02983,51.847107 177.41264,46.159607 V 29.167417 L 183.96733,23.479917 H 270.00639 L 276.63139,29.167417 267.12748,37.663517 183.02983,43.280707 V 51.847107" id="path50"/>
  <path fill="none" stroke-width="0.216" stroke-linecap="butt" stroke-linejoin="miter" stroke="#000000" stroke-opacity="1" stroke-miterlimit="2.6131" d="M 183.02983,51.847107 177.41264,46.159607 V 29.167417 L 183.96733,23.479917 H 270.00639 L 276.63139,29.167417 267.12748,37.663517 183.02983,43.280707 Z M 183.02983,51.847107" id="path52"/>
  <path fill-rule="evenodd" fill="#7f7f7f" fill-opacity="1" d="M 276.63139,46.159607 77.189975,253.0893 H 52.63919 V 244.59321 H 70.639195 L 270.00639,40.472107 267.12748,29.167417 H 276.63139 V 46.159607" id="path54"/>
  <path fill="none" stroke-width="0.216" stroke-linecap="butt" stroke-linejoin="miter" stroke="#000000" stroke-opacity="1" stroke-miterlimit="2.6131" d="M 276.63139,46.159607 77.189975,253.0893 H 52.63919 V 244.59321 H 70.639195 L 270.00639,40.472107 267.12748,29.167417 H 276.63139 Z M 276.63139,46.159607" id="path56"/>
  <path fill-rule="evenodd" fill="#7f7f7f" fill-opacity="1" d="M 201.96733,43.351017 200.02201,46.159607 194.40483,51.847107 H 183.02983 V 40.472107 L 201.96733,43.351017" id="path58"/>
  <path fill="none" stroke-width="0.216" stroke-linecap="butt" stroke-linejoin="miter" stroke="#000000" stroke-opacity="1" stroke-miterlimit="2.6131" d="M 201.96733,43.351017 200.02201,46.159607 194.40483,51.847107 H 183.02983 V 40.472107 Z M 201.96733,43.351017" id="path60"/>
  <path fill-rule="evenodd" fill="#cccccc" fill-opacity="1" d="M 105.55717,153.80024 V 46.089297 H 121.61576 L 124.49467,43.280707 V 31.905707 L 121.61576,29.097107 H 38.4556 L 35.647,31.905707 V 43.280707 L 38.4556,46.089297 H 52.63919 V 244.59321 L 56.31108,247.4018 H 72.510285 L 270.93998,40.472107 V 32.335387 L 268.06108,29.097107 H 185.90873 L 183.02983,31.905707 V 43.351017 L 185.90873,46.159607 H 200.09233 V 57.534607 L 105.55717,153.80024" id="path62"/>
  <path fill="none" stroke-width="0.216" stroke-linecap="butt" stroke-linejoin="miter" stroke="#000000" stroke-opacity="1" stroke-miterlimit="2.6131" d="M 105.55717,153.80024 V 46.089297 H 121.61576 L 124.49467,43.280707 V 31.905707 L 121.61576,29.097107 H 38.4556 L 35.647,31.905707 V 43.280707 L 38.4556,46.089297 H 52.63919 V 244.59321 L 56.31108,247.4018 H 72.510295 L 270.93998,40.472107 V 32.335387 L 268.06108,29.097107 H 185.90873 L 183.02983,31.905707 V 43.351017 L 185.90873,46.159607 H 200.09233 V 57.534607 Z M 105.55717,153.80024" id="path64"/>
  <path fill-rule="evenodd" fill="#000000" fill-opacity="1" d="M 157.11186,153.94477 163.73295,148.25727 H 180.72514 L 185.47904,153.94477 179.79154,170.93696 173.23686,176.62446 H 156.24467 L 151.42045,170.93696 157.11186,153.94477" id="path66"/>
  <path fill="none" stroke-width="0.216" stroke-linecap="butt" stroke-linejoin="miter" stroke="#000000" stroke-opacity="1" stroke-miterlimit="2.6131" d="M 157.11186,153.94477 163.73295,148.25727 H 180.72514 L 185.47905,153.94477 179.79155,170.93696 173.23686,176.62446 H 156.24467 L 151.42045,170.93696 Z M 157.11186,153.94477" id="path68"/>
  <path fill-rule="evenodd" fill="#000000" fill-opacity="1" d="M 162.79936,247.47211 179.86186,196.49555 H 174.17436 L 179.86186,179.43305 H 205.27983 L 210.96733,185.12055 H 214.78373 L 220.39701,179.43305 H 239.33451 L 245.02201,185.12055 H 246.7642 L 252.45561,179.43305 H 275.18998 L 282.74858,190.80805 270.36576,231.12836 H 275.98295 L 270.51029,247.47211 H 236.45561 L 249.77201,207.80024 H 241.27983 L 233.42826,230.98383 H 239.04545 L 233.71733,247.47211 H 199.66264 L 212.90873,207.80024 H 204.41264 L 196.49467,231.12836 H 202.18217 L 196.85404,247.47211 H 162.79936" id="path70" sodipodi:nodetypes="cccccccccccccccccccccccccccccc"/>
  <path fill="none" stroke-width="0.216" stroke-linecap="butt" stroke-linejoin="miter" stroke="#000000" stroke-opacity="1" stroke-miterlimit="2.6131" d="M 162.79936,247.47211 179.86186,196.49555 H 174.17436 L 179.86186,179.43305 H 205.27983 L 210.96733,185.12055 H 214.78373 L 220.39701,179.43305 H 239.33451 L 245.02201,185.12055 H 248.7642 L 254.45561,179.43305 H 275.18998 L 282.74858,190.80805 270.36576,231.12836 H 275.98295 L 270.51029,247.47211 H 236.45561 L 249.77201,207.80024 H 241.27983 L 233.42826,230.98383 H 239.04545 L 233.71733,247.47211 H 199.66264 L 212.90873,207.80024 H 204.41264 L 196.49467,231.12836 H 202.18217 L 196.85405,247.47211 Z M 162.79936,247.47211" id="path72"/>
  <path fill-rule="evenodd" fill="#cccccc" fill-opacity="1" d="M 272.59623,185.12055 276.99076,191.38227 263.02201,236.16742 H 268.6392 L 266.7642,241.78461 H 244.08451 L 257.33451,202.11274 H 237.46342 L 226.15873,236.16742 H 231.77201 L 229.90092,241.78461 H 207.22123 L 220.47123,202.11274 H 200.59623 L 189.29545,236.16742 H 194.98295 L 193.03764,241.78461 H 170.35795 L 187.42045,190.80805 H 181.73295 L 183.60404,185.12055 H 204.41264 L 210.10014,190.80805 H 215.71733 L 221.40483,185.12055 H 238.39701 L 244.08451,190.80805 H 249.77201 L 255.46342,185.12055 H 272.59623" id="path74"/>
  <path fill="none" stroke-width="0.216" stroke-linecap="butt" stroke-linejoin="miter" stroke="#000000" stroke-opacity="1" stroke-miterlimit="2.6131" d="M 272.59623,185.12055 276.99076,191.38227 263.02201,236.16742 H 268.6392 L 266.7642,241.78461 H 244.08451 L 257.33451,202.11274 H 237.46342 L 226.15873,236.16742 H 231.77201 L 229.90092,241.78461 H 207.22123 L 220.47123,202.11274 H 200.59623 L 189.29545,236.16742 H 194.98295 L 193.03764,241.78461 H 170.35795 L 187.42045,190.80805 H 181.73295 L 183.60405,185.12055 H 204.41264 L 210.10014,190.80805 H 215.71733 L 221.40483,185.12055 H 238.39701 L 244.08451,190.80805 H 249.77201 L 255.46342,185.12055 Z M 272.59623,185.12055" id="path76"/>
  <path fill-rule="evenodd" fill="#000000" fill-opacity="1" d="M 176.98295,179.43305 159.63139,231.05414 H 165.53373 L 159.91654,247.47211 H 125.93217 L 142.92436,196.49555 H 137.23686 Z M 137.23686,196.49555 142.92436,179.43305 H 176.98295" id="path78"/>
  <path fill="none" stroke-width="0.216" stroke-linecap="butt" stroke-linejoin="miter" stroke="#000000" stroke-opacity="1" stroke-miterlimit="2.6131" d="M 176.98295,179.43305 159.63139,231.05414 H 165.53373 L 159.91655,247.47211 H 125.93217 L 142.92436,196.49555 H 137.23686 Z M 137.23686,196.49555 142.92436,179.43305 H 176.98295 Z M 137.23686,196.49555" id="path80"/>
  <path fill-rule="evenodd" fill="#cccccc" fill-opacity="1" d="M 156.17436,241.78461 158.04545,236.16742 H 152.35795 L 169.42045,185.12055 H 145.80717 L 143.86186,190.80805 H 150.48686 L 133.49467,241.78461 H 156.17436" id="path82"/>
  <path fill="none" stroke-width="0.216" stroke-linecap="butt" stroke-linejoin="miter" stroke="#000000" stroke-opacity="1" stroke-miterlimit="2.6131" d="M 156.17436,241.78461 158.04545,236.16742 H 152.35795 L 169.42045,185.12055 H 145.80717 L 143.86186,190.80805 H 150.48686 L 133.49467,241.78461 Z M 156.17436,241.78461" id="path84"/>
  <path fill-rule="evenodd" fill="#cccccc" fill-opacity="1" d="M 175.03764,168.12836 178.85404,156.75336 176.98295,153.94477 H 165.60404 L 161.86186,156.75336 158.04545,168.12836 159.99076,170.93696 H 171.36576 L 175.03764,168.12836" id="path86"/>
  <path fill="none" stroke-width="0.216" stroke-linecap="butt" stroke-linejoin="miter" stroke="#000000" stroke-opacity="1" stroke-miterlimit="2.6131" d="M 175.03764,168.12836 178.85405,156.75336 176.98295,153.94477 H 165.60405 L 161.86186,156.75336 158.04545,168.12836 159.99076,170.93696 H 171.36576 Z M 175.03764,168.12836" id="path88"/>
  <path id="path493" d="M 145.12105,3.3517574 130.76203,18.394747 127.11871,15.264067 31.97365,15.288597 21.72771,25.825397 22.1063,50.075757 32.23102,59.999677 36.93702,59.951037 36.91461,113.38251 3.3009405,148.29105 37.10861,182.45707 37.22627,251.95198 50.00475,261.3461 80.244076,261.25145 97.694441,243.26376 145.12105,290.46913 185.68669,249.88976 196.10872,249.75339 203.50153,230.21172 199.53002,230.13688 206.22808,210.30504 211.02399,210.32736 196.10872,249.75339 233.01409,249.93792 240.42134,228.69336 236.51407,228.62916 242.76924,210.18687 247.10767,210.16289 233.01409,249.93792 272.05781,249.94941 279.40528,228.81333 H 273.70241 L 285.19864,190.54679 276.63139,177.01555 258.69128,177.03834 290.22902,145.26646 240.12959,95.850279 284.62171,50.217357 284.42093,25.243167 274.81653,15.419587 180.88302,15.341177 170.07647,25.156267 170.11178,27.542667 Z" style="fill:none;stroke:#ffffff;stroke-width:4.72441;stroke-dasharray:none;stroke-opacity:1" sodipodi:nodetypes="cccccccccccccccccccccccccccccccccccccccccccc"/>
  <metadata id="metadata22224">
    <rdf:RDF>
      <cc:Work rdf:about="">
        <cc:license rdf:resource="https://raw.githubusercontent.com/vim/vim/master/LICENSE"/>
      </cc:Work>
    </rdf:RDF>
  </metadata>
</svg>

<svg xmlns="http://www.w3.org/2000/svg" width="293.575" height="293.806"><path fill-rule="evenodd" d="M286.999 145.374 145.229 6.488 6.342 148.183 145.23 287.144l141.77-141.77"/><path fill="none" stroke="#000" stroke-miterlimit="2.613" stroke-width=".216" d="M286.999 145.374 145.229 6.488 6.342 148.183 145.23 287.144Zm0 0"/><path fill="#006b05" fill-rule="evenodd" d="M272.815 145.374h8.496L145.23 281.456v-8.496l127.586-127.586"/><path fill="none" stroke="#000" stroke-miterlimit="2.613" stroke-width=".216" d="M272.815 145.374h8.496L145.23 281.456v-8.496Zm0 0"/><path fill="#007d17" fill-rule="evenodd" d="M12.03 148.183h8.496L145.229 272.96v8.496l-133.2-133.273"/><path fill="none" stroke="#000" stroke-miterlimit="2.613" stroke-width=".216" d="M12.03 148.183h8.496L145.229 272.96v8.496Zm0 0"/><path fill="#6f9" fill-rule="evenodd" d="M145.229 20.601v-8.426l-133.2 136.008h8.497L145.229 20.601"/><path fill="none" stroke="#000" stroke-miterlimit="2.613" stroke-width=".216" d="M145.23 20.601v-8.426L12.03 148.183h8.496Zm0 0"/><path fill="#45ff02" fill-rule="evenodd" d="M145.229 12.175v8.426l127.586 124.773h8.496L145.23 12.175"/><path fill="none" stroke="#000" stroke-miterlimit="2.613" stroke-width=".216" d="M145.23 12.175v8.426l127.585 124.773h8.496Zm0 0"/><path fill="#093" fill-rule="evenodd" d="m145.229 272.96 127.586-127.586L145.229 20.601 20.526 148.183 145.229 272.96"/><path fill="none" stroke="#000" stroke-miterlimit="2.613" stroke-width=".216" d="m145.23 272.96 127.585-127.586L145.229 20.601 20.526 148.183Zm0 0"/><path fill-rule="evenodd" d="m171.725 48.968 8.496 8.567-58.605 59.472V57.535h5.687l8.496-8.567v-22.61l-8.496-8.566H32.838l-8.496 8.567v22.61l8.496 8.566h6.625V250.28l10.368 8.496h29.304l203.11-209.809v-22.61l-8.496-8.566h-92.59l-9.434 8.567v22.61"/><path fill="none" stroke="#000" stroke-miterlimit="2.613" stroke-width=".216" d="m171.725 48.968 8.496 8.567-58.605 59.472V57.535h5.687l8.496-8.567v-22.61l-8.496-8.566H32.838l-8.496 8.567v22.61l8.496 8.566h6.625V250.28l10.368 8.496h29.304l203.11-209.809v-22.61l-8.496-8.566h-92.59l-9.434 8.567Zm0 0"/><path fill="#fff" fill-rule="evenodd" d="M35.647 51.847 29.96 46.16V29.167l5.687-5.687 88.848-.07 5.617 5.757-5.617 2.739-2.88-2.739-85.968 14.114v8.566"/><path fill="none" stroke="#000" stroke-miterlimit="2.613" stroke-width=".216" d="M35.647 51.847 29.96 46.16V29.167l5.687-5.687 88.848-.07 5.617 5.757-5.617 2.739-2.88-2.739-85.968 14.114Zm0 0"/><path fill="#fff" fill-rule="evenodd" d="m52.64 253.09-6.626-5.688V51.777l6.625-5.617v206.93"/><path fill="none" stroke="#000" stroke-miterlimit="2.613" stroke-width=".216" d="m52.64 253.09-6.626-5.688V51.777l6.625-5.617Zm0 0"/><path fill="#fff" fill-rule="evenodd" d="m194.405 51.847 5.687-5.687v11.375l-94.535 96.336L116 131.19l78.406-79.344"/><path fill="none" stroke="#000" stroke-miterlimit="2.613" stroke-width=".216" d="m194.405 51.847 5.687-5.687v11.375l-94.535 96.336L116 131.19Zm0 0"/><path fill="#7f7f7f" fill-rule="evenodd" d="m54.58 43.351-1.94 2.809-6.626 5.687H35.647V40.472l18.934 2.879"/><path fill="none" stroke="#000" stroke-miterlimit="2.613" stroke-width=".216" d="m54.58 43.351-1.94 2.809-6.626 5.687H35.647V40.472Zm0 0"/><path fill="#7f7f7f" fill-rule="evenodd" d="M115.999 51.847v79.344l-10.442 22.61V46.088h16.059l2.879-2.808-2.88-14.114h8.497V46.16l-5.617 5.687h-8.496"/><path fill="none" stroke="#000" stroke-miterlimit="2.613" stroke-width=".216" d="M115.999 51.847v79.344l-10.442 22.61V46.088h16.059l2.879-2.808-2.88-14.114h8.497V46.16l-5.617 5.687Zm0 0"/><path fill="#fff" fill-rule="evenodd" d="m183.03 51.847-5.617-5.687V29.167l6.554-5.687h86.04l6.624 5.687-9.504 8.497-84.097 5.617v8.566"/><path fill="none" stroke="#000" stroke-miterlimit="2.613" stroke-width=".216" d="m183.03 51.847-5.617-5.687V29.167l6.554-5.687h86.04l6.624 5.687-9.504 8.497-84.097 5.617Zm0 0"/><path fill="#7f7f7f" fill-rule="evenodd" d="M276.631 46.16 77.19 253.09H52.64v-8.497h18l199.366-204.12-2.879-11.306h9.504V46.16"/><path fill="none" stroke="#000" stroke-miterlimit="2.613" stroke-width=".216" d="M276.631 46.16 77.19 253.09H52.64v-8.497h18l199.366-204.12-2.879-11.306h9.504Zm0 0"/><path fill="#7f7f7f" fill-rule="evenodd" d="m201.967 43.351-1.945 2.809-5.617 5.687H183.03V40.472l18.937 2.879"/><path fill="none" stroke="#000" stroke-miterlimit="2.613" stroke-width=".216" d="m201.967 43.351-1.945 2.809-5.617 5.687H183.03V40.472Zm0 0"/><path fill="#ccc" fill-rule="evenodd" d="M105.557 153.8V46.09h16.059l2.879-2.81V31.907l-2.88-2.809h-83.16l-2.808 2.809V43.28l2.809 2.808h14.183v198.504l3.672 2.809h16.2L270.94 40.472v-8.137l-2.879-3.238H185.91l-2.88 2.809V43.35l2.88 2.809h14.183v11.375L105.557 153.8"/><path fill="none" stroke="#000" stroke-miterlimit="2.613" stroke-width=".216" d="M105.557 153.8V46.09h16.059l2.879-2.81V31.907l-2.88-2.809h-83.16l-2.808 2.809V43.28l2.809 2.808h14.183v198.504l3.672 2.809h16.2L270.94 40.472v-8.137l-2.879-3.238H185.91l-2.88 2.809V43.35l2.88 2.809h14.183v11.375Zm0 0"/><path fill-rule="evenodd" d="m157.112 153.945 6.62-5.688h16.993l4.754 5.688-5.687 16.992-6.555 5.687h-16.992l-4.825-5.687 5.692-16.992"/><path fill="none" stroke="#000" stroke-miterlimit="2.613" stroke-width=".216" d="m157.112 153.945 6.62-5.688h16.993l4.754 5.688-5.687 16.992-6.555 5.687h-16.992l-4.825-5.687Zm0 0"/><path fill-rule="evenodd" d="m162.8 247.472 17.062-50.976h-5.688l5.688-17.063h25.418l5.687 5.688h3.817l5.613-5.688h18.938l5.687 5.688h1.742l5.692-5.688h22.734l7.559 11.375-12.383 40.32h5.617l-5.473 16.344h-34.054l13.316-39.672h-8.492l-7.852 23.184h5.617l-5.328 16.488h-34.054l13.246-39.672h-8.496l-7.918 23.328h5.687l-5.328 16.344h-34.055"/><path fill="none" stroke="#000" stroke-miterlimit="2.613" stroke-width=".216" d="m162.8 247.472 17.062-50.976h-5.688l5.688-17.063h25.418l5.687 5.688h3.817l5.613-5.688h18.938l5.687 5.688h3.742l5.692-5.688h20.734l7.559 11.375-12.383 40.32h5.617l-5.473 16.344h-34.054l13.316-39.672h-8.492l-7.852 23.184h5.617l-5.328 16.488h-34.054l13.246-39.672h-8.496l-7.918 23.328h5.687l-5.328 16.344Zm0 0"/><path fill="#ccc" fill-rule="evenodd" d="m272.596 185.12 4.395 6.262-13.969 44.785h5.617l-1.875 5.618h-22.68l13.25-39.672h-19.87l-11.305 34.054h5.613l-1.871 5.618h-22.68l13.25-39.672h-19.875l-11.3 34.054h5.687l-1.945 5.618h-22.68l17.062-50.977h-5.687l1.871-5.687h20.809l5.687 5.687h5.617l5.688-5.687h16.992l5.688 5.687h5.687l5.691-5.687h17.133"/><path fill="none" stroke="#000" stroke-miterlimit="2.613" stroke-width=".216" d="m272.596 185.12 4.395 6.262-13.969 44.785h5.617l-1.875 5.618h-22.68l13.25-39.672h-19.87l-11.305 34.054h5.613l-1.871 5.618h-22.68l13.25-39.672h-19.875l-11.3 34.054h5.687l-1.945 5.618h-22.68l17.062-50.977h-5.687l1.871-5.687h20.809l5.687 5.687h5.617l5.688-5.687h16.992l5.688 5.687h5.687l5.691-5.687Zm0 0"/><path fill-rule="evenodd" d="m176.983 179.433-17.352 51.621h5.903l-5.617 16.418h-33.985l16.992-50.976h-5.687Zm-39.746 17.063 5.687-17.063h34.059"/><path fill="none" stroke="#000" stroke-miterlimit="2.613" stroke-width=".216" d="m176.983 179.433-17.352 51.621h5.903l-5.617 16.418h-33.985l16.992-50.976h-5.687Zm-39.746 17.063 5.687-17.063h34.059Zm0 0"/><path fill="#ccc" fill-rule="evenodd" d="m156.174 241.785 1.871-5.618h-5.687l17.062-51.046h-23.613l-1.945 5.687h6.625l-16.992 50.977h22.68"/><path fill="none" stroke="#000" stroke-miterlimit="2.613" stroke-width=".216" d="m156.174 241.785 1.871-5.618h-5.687l17.062-51.046h-23.613l-1.945 5.687h6.625l-16.992 50.977Zm0 0"/><path fill="#ccc" fill-rule="evenodd" d="m175.038 168.128 3.816-11.375-1.871-2.808h-11.379l-3.742 2.808-3.817 11.375 1.946 2.809h11.375l3.672-2.809"/><path fill="none" stroke="#000" stroke-miterlimit="2.613" stroke-width=".216" d="m175.038 168.128 3.816-11.375-1.871-2.808h-11.379l-3.742 2.808-3.817 11.375 1.946 2.809h11.375Zm0 0"/><path d="m145.121 3.352-14.359 15.043-3.643-3.13-95.145.024-10.246 10.536.378 24.25L32.231 60l4.706-.049-.022 53.432L3.3 148.29l33.808 34.166.117 69.495 12.779 9.394 30.24-.095 17.45-17.987 47.426 47.205 40.566-40.58 10.422-.136 7.393-19.541-3.972-.075 6.698-19.832 4.796.022-14.915 39.426 36.905.185 7.407-21.245-3.907-.064 6.255-18.442 4.339-.024-14.094 39.775 39.044.011 7.347-21.136h-5.703l11.497-38.266-8.568-13.531-17.94.022 31.538-31.772-50.1-49.416 44.493-45.633-.201-24.974-9.604-9.823-93.934-.079-10.807 9.815.036 2.387Z" style="fill:none;stroke:#fff;stroke-width:4.72441;stroke-dasharray:none;stroke-opacity:1"/></svg>
